icons/svg/education/childcare.svg

<?xml version="1.0" encoding="UTF-8" standalone="no"?>
<!-- Created with Inkscape (http://www.inkscape.org/) -->

<svg
   xmlns:dc="http://purl.org/dc/elements/1.1/"
   xmlns:cc="http://creativecommons.org/ns#"
   xmlns:rdf="http://www.w3.org/1999/02/22-rdf-syntax-ns#"
   xmlns:svg="http://www.w3.org/2000/svg"
   xmlns="http://www.w3.org/2000/svg"
   xmlns:sodipodi="http://sodipodi.sourceforge.net/DTD/sodipodi-0.dtd"
   xmlns:inkscape="http://www.inkscape.org/namespaces/inkscape"
   version="1.0"
   width="580"
   height="580"
   id="svg2"
   sodipodi:version="0.32"
   inkscape:version="0.92.3 (2405546, 2018-03-11)"
   sodipodi:docname="childcare.svg"
   inkscape:output_extension="org.inkscape.output.svg.inkscape">
  <metadata
     id="metadata2975">
    <rdf:RDF>
      <cc:Work
         rdf:about="">
        <dc:format>image/svg+xml</dc:format>
        <dc:type
           rdf:resource="http://purl.org/dc/dcmitype/StillImage" />
        <cc:license
           rdf:resource="http://web.resource.org/cc/PublicDomain" />
        <dc:language>en</dc:language>
      </cc:Work>
    </rdf:RDF>
  </metadata>
  <sodipodi:namedview
     inkscape:window-height="1006"
     inkscape:window-width="1920"
     inkscape:pageshadow="2"
     inkscape:pageopacity="0.0"
     guidetolerance="10.0"
     gridtolerance="10.0"
     objecttolerance="10.0"
     borderopacity="1.0"
     bordercolor="#666666"
     pagecolor="#ffffff"
     id="base"
     inkscape:zoom="0.92167712"
     inkscape:cx="204.55521"
     inkscape:cy="353.91508"
     inkscape:window-x="1920"
     inkscape:window-y="0"
     inkscape:current-layer="svg2"
     showgrid="false"
     inkscape:window-maximized="1" />
  <defs
     id="defs4">
    <inkscape:perspective
       sodipodi:type="inkscape:persp3d"
       inkscape:vp_x="0 : 290 : 1"
       inkscape:vp_y="0 : 1000 : 0"
       inkscape:vp_z="580 : 290 : 1"
       inkscape:persp3d-origin="290 : 193.33333 : 1"
       id="perspective2441" />
    <inkscape:perspective
       id="perspective3452"
       inkscape:persp3d-origin="30 : 20 : 1"
       inkscape:vp_z="60 : 30 : 1"
       inkscape:vp_y="0 : 1000 : 0"
       inkscape:vp_x="0 : 30 : 1"
       sodipodi:type="inkscape:persp3d" />
    <symbol
       viewBox="244.5 110 489 219.9"
       id="symbol-university">
      <path
         id="path4460"
         d="M79,43l57,119c0,0,21-96,104-96s124,106,124,106l43-133l82-17L0,17L79,43z" />
      <path
         id="path4462"
         d="M94,176l-21,39"
         stroke-width="20"
         stroke="#000000"
         fill="none" />
      <path
         id="path4464"
         d="M300,19c0,10.5-22.6,19-50.5,19S199,29.5,199,19s22.6-19,50.5-19S300,8.5,300,19z" />
      <path
         id="path4466"
         d="M112,216l-16-38L64,88c0,0-9-8-4-35s16-24,16-24"
         stroke-width="20"
         stroke="#000000"
         ill="none" />
    </symbol>
    <inkscape:perspective
       id="perspective4471"
       inkscape:persp3d-origin="372.04724 : 350.78739 : 1"
       inkscape:vp_z="744.09448 : 526.18109 : 1"
       inkscape:vp_y="0 : 1000 : 0"
       inkscape:vp_x="0 : 526.18109 : 1"
       sodipodi:type="inkscape:persp3d" />
    <inkscape:perspective
       id="perspective4668"
       inkscape:persp3d-origin="6 : 4 : 1"
       inkscape:vp_z="12 : 6 : 1"
       inkscape:vp_y="0 : 1000 : 0"
       inkscape:vp_x="0 : 6 : 1"
       sodipodi:type="inkscape:persp3d" />
  </defs>
  <g
     id="g1327">
    <path
       d="M 66.275,1.768 C 24.94,1.768 1.704,23.139 1.704,66.804 L 1.704,516.927 C 1.704,557.771 22.599,579.156 63.896,579.156 L 515.92,579.156 C 557.227,579.156 578.149,558.841 578.149,516.927 L 578.149,66.804 C 578.149,24.203 557.227,1.768 514.628,1.768 C 514.624,1.768 66.133,1.625 66.275,1.768 z "
       style="fill:#111;stroke:#eee;stroke-width:3.40799999"
       id="path1329" />
  </g>
  <g
     id="Layer_4"
     transform="matrix(0.93635804,0,0,0.93635804,27.922497,143.70681)">
    <path
       style="fill:#ffffff;stroke-width:0.98193693"
       inkscape:connector-curvature="0"
       d="m 154.85564,352.1882 131.92126,60.78582 c 0,0 15.51951,9.05346 41.38569,0 l 213.39748,-85.35978 c 0,0 30.60992,-19.25676 -8.19034,-37.3627 l -156.06218,32.18986 -68.54607,-16.81371 103.4667,-6.46703 c 0,0 33.62544,-24.57297 1.29223,-47.85175 H 304.88185 c 0,0 -47.85273,-27.16038 -117.69299,-14.22729 L 17.763498,228.02817 V 357.1059 c 50.22666,-3.14899 116.641522,-11.69405 137.092142,-4.9177 z"
       id="path24"
       sodipodi:nodetypes="cccccccccccccc" />
  </g>
  <path
     style="fill:#ffffff;fill-opacity:1;stroke-width:2.2076025"
     d="m 322.5136,349.15583 c -12.41121,-6.40824 -30.76574,-11.58792 -38.35437,-14.09153 l -16.28009,-2.89697 V 321.3093 310.45126 h 61.81289 61.81287 v 12.96967 c 0,7.13332 -0.62089,16.07411 -1.37975,19.86842 l -1.37975,6.89876 -28.97479,-0.15982 c -22.95107,-0.1266 -25.17098,0.54844 -37.25701,-0.87246 z M 267.37819,239.95375 c -0.4916,-31.7606 -1.21384,-39.33021 -3.91425,-41.02435 -2.44615,-1.53463 -13.64625,3.78967 -42.864,20.37668 -21.75394,12.34978 -42.05337,23.40495 -45.10987,24.56702 -10.5479,4.01029 -22.40626,-5.32861 -22.40626,-17.64579 0,-7.01534 11.3295,-14.61202 72.72183,-48.76163 l 60.58001,-33.69775 10.06328,5.00557 c 7.2953,3.62873 15.26539,5.28023 28.97627,6.00421 16.57149,0.87502 20.64688,0.29831 32.9181,-4.65827 11.16465,-4.50959 14.9403,-5.16596 18.61624,-3.2363 25.84131,13.56527 122.23943,69.6047 124.30338,72.26167 7.69357,9.90403 -2.32602,28.00624 -14.51154,26.21778 -3.32267,-0.48765 -25.24556,-11.70418 -48.71753,-24.92559 -40.40005,-22.75674 -42.83789,-23.8179 -45.70642,-19.89495 -2.28392,3.12344 -3.03014,13.28228 -3.03014,41.25127 v 37.10731 H 328.63915 267.98103 Z M 316.61122,124.7364 c -22.65726,-6.22429 -36.65226,-24.52341 -36.6931,-47.978028 -0.0347,-19.866262 9.23634,-35.0284 26.7781,-43.794123 8.6679,-4.331386 11.98024,-5.064799 22.87425,-5.064799 10.49551,0 14.16745,0.752857 20.85246,4.275471 18.27146,9.627942 28.03021,25.20727 27.92667,44.583451 -0.17554,32.846338 -30.64033,56.521098 -61.73838,47.978028 z"
     id="path850"
     inkscape:connector-curvature="0"
     sodipodi:nodetypes="cccccccsscscscscsscssscscscscccssssscss" />
</svg>

<svg width="580" height="580" viewBox="0 0 580 580" fill="none" xmlns="http://www.w3.org/2000/svg">
<g clip-path="url(#clip0)">
<path d="M66.275 1.76799C24.94 1.76799 1.704 23.139 1.704 66.804V516.927C1.704 557.771 22.599 579.156 63.896 579.156H515.92C557.227 579.156 578.149 558.841 578.149 516.927V66.804C578.149 24.203 557.227 1.76799 514.628 1.76799C514.624 1.76799 66.133 1.62499 66.275 1.76799Z" fill="#111111" stroke="#EEEEEE" stroke-width="3.408"/>
<path d="M172.923 473.481L296.448 530.398C296.448 530.398 310.98 538.876 335.2 530.398L535.017 450.471C535.017 450.471 563.679 432.44 527.348 415.486L381.217 445.627L317.034 429.884L413.916 423.828C413.916 423.828 445.401 400.819 415.126 379.022H313.401C313.401 379.022 268.594 353.59 203.198 365.7L44.5555 357.223V478.086C91.5856 475.137 153.774 467.136 172.923 473.481Z" fill="white"/>
<path d="M322.514 349.156C310.102 342.748 291.748 337.568 284.159 335.064L267.879 332.167V321.309V310.451H329.692H391.505V323.421C391.505 330.554 390.884 339.495 390.125 343.289L388.745 350.188L359.771 350.028C336.82 349.902 334.6 350.577 322.514 349.156ZM267.378 239.954C266.887 208.193 266.164 200.624 263.464 198.929C261.018 197.395 249.818 202.719 220.6 219.306C198.846 231.656 178.547 242.711 175.49 243.873C164.942 247.883 153.084 238.544 153.084 226.227C153.084 219.212 164.413 211.615 225.806 177.466L286.386 143.768L296.449 148.773C303.744 152.402 311.714 154.054 325.425 154.778C341.997 155.653 346.072 155.076 358.343 150.119C369.508 145.61 373.284 144.953 376.96 146.883C402.801 160.448 499.199 216.488 501.263 219.145C508.956 229.049 498.937 247.151 486.751 245.363C483.429 244.875 461.506 233.658 438.034 220.437C397.634 197.68 395.196 196.619 392.327 200.542C390.044 203.665 389.297 213.824 389.297 241.793V278.901H328.639H267.981L267.378 239.954ZM316.611 124.736C293.954 118.512 279.959 100.213 279.918 76.7584C279.883 56.8921 289.154 41.73 306.696 32.9642C315.364 28.6329 318.676 27.8994 329.57 27.8994C340.066 27.8994 343.738 28.6523 350.423 32.1749C368.694 41.8029 378.453 57.3822 378.35 76.7584C378.174 109.605 347.709 133.279 316.611 124.736Z" fill="white"/>
</g>
<defs>
<clipPath id="clip0">
<path d="M0 0H580V580H0V0Z" fill="white"/>
</clipPath>
</defs>
</svg>
